X: 11092
T: SNOWBIRD REEL
C: Bob McQuillen 1 July '00
B: Bob's Note Book 11 #93
R: reel
Z: 2019 John Chambers <jc:trillian.mit.edu>
M: C
L: 1/8
K: G
GA \
| B2BG DGBd | gedc BGcB | A2AF DFAB | cedB cAdc |
| B2BG DGBd | gedc BGBd | cedc BdBG | AGAB G2 :|
|: Bd \
| e2ce gage | dBGB AGBd | e2ce geag | fage d2Bd |
| e2ce gage | dBGE DGBd | gedB gfeg | dBAB G2 :|
%%begintext align
%% To tell about the Gotts, Peter and Polly, of Marshall,
%% NC, would take almost this whole page and leave no room for the tune! But they
%% are old friends of many years, going back to happy times at Augusta where
%% Peter taught log cabin construction. They have a beautiful Peter-built cabin
%% in the Adirondacks, full of pretty paingings by Polly; it's called Snowbird Camp,
%% and once in a blue moon I got to go there and play a dance with these
%% dear people. I'm sure looking forward to our next get-together! [smiley face]
%%endtext

%%sep 1 1 500

%%sep 1 1 500

